X: 04050
T: LAURIE'S REEL
C: Bob McQuillen June 1978
B: Bob's Note Book 04 #50
R: reel
Z: 2020 John Chambers <jc:trillian.mit.edu>
M: C
L: 1/8
K: A
cd \
| efec d2ed | cBAc B2ED | CEAc dcBA | G2 B4 cd |
| efec d2ed | cBAc B2ED | CEAc dBed | c2 A4 :|
|: cd \
| eaga faga | efed cAcd | eaec dfed | c2 B4 cd |
| eaga faga | efed ceae | faec dfed | c2 A4 :|
%%begintext align
%% For Laurie Wenblad of Peterborough, N.H.,
%% with love and Best Wishes from her
%% CON-VAL H.S. Weightlifting Coach.
%%endtext

%%sep 1 1 500

%%sep 1 1 500

